client/filepreviewer/pdfjs/web/images/comment-editButton.svg

<svg width="16" height="16" viewBox="0 0 16 16" fill="none" xmlns="http://www.w3.org/2000/svg">
  <g>
    <path d="M10.75 7H12.25V5.5H10.75V7Z" fill="black"/>
    <path d="M7.5 7H9V5.5H7.5V7Z" fill="black"/>
    <path d="M4.25 7H5.75V5.5H4.25V7Z" fill="black"/>
    <path fill-rule="evenodd" clip-rule="evenodd" d="M2 0C0.895786 0 0 0.895786 0 2V10.5C0 11.6042 0.895786 12.5 2 12.5H3V15.25C3 15.5405 3.16778 15.805 3.43066 15.9287C3.6937 16.0523 4.00473 16.0126 4.22852 15.8271L8.27051 12.4775L13.9941 12.4961C15.1007 12.4991 15.9999 11.6033 16 10.4961V2C16 0.895786 15.1042 0 14 0H2ZM14 1.5C14.2758 1.5 14.5 1.72421 14.5 2V10.4961C14.4999 10.7727 14.2753 10.9969 13.998 10.9961L8.00195 10.9775L7.87207 10.9893C7.74389 11.0115 7.62281 11.0664 7.52148 11.1504L4.5 13.6543V11.75C4.5 11.3358 4.16421 11 3.75 11H2C1.72421 11 1.5 10.7758 1.5 10.5V2C1.5 1.72421 1.72421 1.5 2 1.5H14Z" fill="black"/>
  </g>
</svg>

<svg xmlns="http://www.w3.org/2000/svg" width="16" height="16" fill="none"><g fill="#000"><path d="M10.75 7h1.5V5.5h-1.5V7ZM7.5 7H9V5.5H7.5V7ZM4.25 7h1.5V5.5h-1.5V7Z"/><path fill-rule="evenodd" d="M2 0a2 2 0 0 0-2 2v8.5a2 2 0 0 0 2 2h1v2.75a.75.75 0 0 0 1.229.577l4.042-3.35 5.723.02a2 2 0 0 0 2.006-2V2a2 2 0 0 0-2-2H2Zm12 1.5a.5.5 0 0 1 .5.5v8.496a.5.5 0 0 1-.502.5l-5.996-.019-.13.012a.75.75 0 0 0-.35.161L4.5 13.654V11.75a.75.75 0 0 0-.75-.75H2a.5.5 0 0 1-.5-.5V2a.5.5 0 0 1 .5-.5h12Z" clip-rule="evenodd"/></g></svg>
